src/actions/symbolic/window-symbolic.svg

<svg width="16" height="16" version="1.1" xmlns="http://www.w3.org/2000/svg">
 <path d="m3 1c-1.108 0-2 0.892-2 2v10c0 1.108 0.892 2 2 2h10c1.108 0 2-0.892 2-2v-10c0-1.108-0.892-2-2-2h-10zm0 1h10c0.554 0 1 0.446 1 1v2h-12v-2c0-0.554 0.446-1 1-1zm5 1v1h1v-1h-1zm2 0v1h1v-1h-1zm2 0v1h1v-1h-1zm-10 3h12v7c0 0.554-0.446 1-1 1h-10c-0.554 0-1-0.446-1-1v-7z" fill="currentColor"/>
</svg>

<svg xmlns="http://www.w3.org/2000/svg" width="16" height="16"><path fill="currentColor" d="M3 1c-1.108 0-2 .892-2 2v10c0 1.108.892 2 2 2h10c1.108 0 2-.892 2-2V3c0-1.108-.892-2-2-2zm0 1h10c.554 0 1 .446 1 1v2H2V3c0-.554.446-1 1-1m5 1v1h1V3zm2 0v1h1V3zm2 0v1h1V3zM2 6h12v7c0 .554-.446 1-1 1H3c-.554 0-1-.446-1-1z"/></svg>
